public/icons/javascript.svg

<?xml version="1.0" encoding="UTF-8" standalone="no" ?>
<!DOCTYPE svg PUBLIC "-//W3C//DTD SVG 1.1//EN" "http://www.w3.org/Graphics/SVG/1.1/DTD/svg11.dtd">
<svg xmlns="http://www.w3.org/2000/svg" xmlns:xlink="http://www.w3.org/1999/xlink" version="1.1" width="1080" height="1080" viewBox="0 0 1080 1080" xml:space="preserve">
<desc>Created with Fabric.js 5.2.4</desc>
<defs>
</defs>
<g transform="matrix(1 0 0 1 540 540)" id="2d831029-7c52-4772-85d0-2cc7e614e5d8"  >
</g>
<g transform="matrix(1 0 0 1 540 540)" id="d6168086-9d48-4895-8a10-8bb75ebf5a68"  >
<rect style="stroke: none; stroke-width: 1; stroke-dasharray: none; stroke-linecap: butt; stroke-dashoffset: 0; stroke-linejoin: miter; stroke-miterlimit: 4; fill: none; fill-rule: nonzero; opacity: 1;" vector-effect="non-scaling-stroke"  x="-540" y="-540" rx="0" ry="0" width="1080" height="1080" />
</g>
<g transform="matrix(1 0 0 1 540 540)"  >
<g style="" vector-effect="non-scaling-stroke"   >
		<g transform="matrix(1 0 0 1 -155.95 3.05)"  >
<path style="stroke: none; stroke-width: 1; stroke-dasharray: none; stroke-linecap: butt; stroke-dashoffset: 0; stroke-linejoin: miter; stroke-miterlimit: 4; fill: rgb(251,150,56); fill-rule: nonzero; opacity: 1;" vector-effect="non-scaling-stroke"  transform=" translate(-99.13, -257.4)" d="M 112.155 67.644 L 196.36700000000002 67.644 L 196.36700000000002 303.663 C 196.36700000000002 410.038 145.39800000000002 447.16 63.95300000000003 447.16 C 44.00900000000003 447.16 18.52400000000003 443.836 1.9010000000000318 438.29600000000005 L 11.320000000000032 370.15000000000003 C 22.955000000000034 374.028 37.91400000000003 376.79800000000006 54.534000000000034 376.79800000000006 C 89.99200000000003 376.79800000000006 112.15500000000003 360.7300000000001 112.15500000000003 303.11100000000005 L 112.15500000000003 67.644 z" stroke-linecap="round" />
</g>
		<g transform="matrix(1 0 0 1 125.2 0)"  >
<path style="stroke: none; stroke-width: 1; stroke-dasharray: none; stroke-linecap: butt; stroke-dashoffset: 0; stroke-linejoin: miter; stroke-miterlimit: 4; fill: rgb(251,150,56); fill-rule: nonzero; opacity: 1;" vector-effect="non-scaling-stroke"  transform=" translate(-380.29, -254.36)" d="M 269.484 354.634 C 291.645 366.269 327.104 377.904 363.116 377.904 C 401.899 377.904 422.39799999999997 361.838 422.39799999999997 336.906 C 422.39799999999997 314.19100000000003 404.669 300.341 359.792 284.827 C 297.739 262.665 256.74199999999996 228.315 256.74199999999996 173.46699999999998 C 256.74199999999996 109.75199999999998 310.48299999999995 61.54999999999998 398.02 61.54999999999998 C 440.68199999999996 61.54999999999998 471.152 69.86299999999999 493.315 80.38799999999998 L 474.476 147.97999999999996 C 460.072 140.77899999999997 432.923 130.25099999999998 396.914 130.25099999999998 C 360.347 130.25099999999998 342.61699999999996 147.426 342.61699999999996 166.26399999999998 C 342.61699999999996 190.088 363.116 200.61299999999997 411.87299999999993 219.452 C 477.80099999999993 243.82999999999998 508.2729999999999 278.18 508.2729999999999 331.367 C 508.2729999999999 393.973 460.6259999999999 447.161 358.1299999999999 447.161 C 315.4679999999999 447.161 273.3599999999999 435.525 252.3099999999999 423.891 L 269.484 354.634 z" stroke-linecap="round" />
</g>
</g>
</g>
<g transform="matrix(NaN NaN NaN NaN 0 0)"  >
<g style=""   >
</g>
</g>
</svg>

<?xml version="1.0" ?><!DOCTYPE svg  PUBLIC '-//W3C//DTD SVG 1.1 Tiny//EN'  'http://www.w3.org/Graphics/SVG/1.1/DTD/svg11-tiny.dtd'><svg baseProfile="tiny" height="512px" version="1.1" viewBox="0 0 512 512" width="512px" xml:space="preserve" xmlns="http://www.w3.org/2000/svg" xmlns:xlink="http://www.w3.org/1999/xlink"><g id="Layer_1"><g><path d="M112.155,67.644h84.212v236.019c0,106.375-50.969,143.497-132.414,143.497c-19.944,0-45.429-3.324-62.052-8.864    l9.419-68.146c11.635,3.878,26.594,6.648,43.214,6.648c35.458,0,57.621-16.068,57.621-73.687V67.644z"/><path d="M269.484,354.634c22.161,11.635,57.62,23.27,93.632,23.27c38.783,0,59.282-16.066,59.282-40.998    c0-22.715-17.729-36.565-62.606-52.079c-62.053-22.162-103.05-56.512-103.05-111.36c0-63.715,53.741-111.917,141.278-111.917    c42.662,0,73.132,8.313,95.295,18.838l-18.839,67.592c-14.404-7.201-41.553-17.729-77.562-17.729    c-36.567,0-54.297,17.175-54.297,36.013c0,23.824,20.499,34.349,69.256,53.188c65.928,24.378,96.4,58.728,96.4,111.915    c0,62.606-47.647,115.794-150.143,115.794c-42.662,0-84.77-11.636-105.82-23.27L269.484,354.634z"/></g></g></svg>
